X: 9501
T: Dark Island, The
R: waltz
M: 3/4
K: Gmajor
E2|"Am"A3 E A2|"Em"G3 A G2|"C"E3 D C2|"G"D4 GA|
"G"B3 A G2|B d3 D2|"Em" B3 d B2|"D"A4 E2|
"Am"A3 E A2|"Em"G3 A G2|"C"E3 D C2|"G"D4 GA|
"G" B3 D dB|"D" A3 D BA|"C" G6|"G"G4 Bc|
"G" d3 D D2|"G7"B3 A G2|"C"E C3 E2|"G" D4 GA|
"G"B3 A G2|B d3 D2|"Em" B3 d B2|"D"A4 E2|
"Am"A3 E A2|"Em"G3 A G2|"C"E3 D C2|"G"D4 GA|
"G" B3 D dB|"D" A3 D BA|"C" G6|"G"G4||

